src/svg/ue908-building2.svg

<!-- Generated by IcoMoon.io -->
<svg version="1.1" xmlns="http://www.w3.org/2000/svg" width="32" height="32" viewBox="0 0 32 32">
<path d="M20.094 2c-0.962-1.209-2.427-2-4.094-2s-3.131 0.791-4.094 2h-7.906v30h24v-30h-7.906zM16 1.001c0.553 0 1.001 0.448 1.001 1.001s-0.448 0.997-1.001 0.997c-0.551 0-1.001-0.448-1.001-1.001s0.45-0.997 1.001-0.997zM26 30h-20v-26h4.919c-0.101 0.402-0.169 0.816-0.169 1.25h10.501c0-0.434-0.066-0.848-0.165-1.25h4.914v26z"></path>
<path d="M9.527 18.078v-10.999h-2v12.999h16.946v-2z"></path>
<path d="M7.527 22.249h16.946v2h-16.946v-2z"></path>
<path d="M7.527 26h16.946v2h-16.946v-2z"></path>
<path d="M15.497 12.293l3.71 3.712 4.926-4.926-1.415-1.415-3.511 3.511-3.71-3.71-3.406 3.406-1.152-1.152-1.413 1.413 2.565 2.567z"></path>
</svg>

<svg xmlns="http://www.w3.org/2000/svg" width="32" height="32"><path d="M20.094 2C19.132.791 17.667 0 16 0s-3.131.791-4.094 2H4v30h24V2h-7.906zM16 1.001c.553 0 1.001.448 1.001 1.001s-.448.997-1.001.997a.999.999 0 1 1 0-1.998zM26 30H6V4h4.919a5.1 5.1 0 0 0-.169 1.25h10.501c0-.434-.066-.848-.165-1.25H26v26z"/><path d="M9.527 18.078V7.079h-2v12.999h16.946v-2zm-2 4.171h16.946v2H7.527v-2zm0 3.751h16.946v2H7.527v-2z"/><path d="M15.497 12.293l3.71 3.712 4.926-4.926-1.415-1.415-3.511 3.511-3.71-3.71-3.406 3.406-1.152-1.152-1.413 1.413 2.565 2.567z"/></svg>
